X: 24755
T: Mademoiselle Kennedy
R: reel
M: 4/4
K: Dmajor
|:D2FD EDB,C|D2FD ADFA|B3A BAFB|AFDF EDB,C|
D2FD EDB,C|D2FD ADFA|BAFB AFDF|1 FDB,C D2 A,/B,/C:|2 FDB,C D2Bc||
|:d3e fdBc|d2de dBAF|A2AB AFDF|A^GAB AFD2|
d2de fdBc|d2de dBAF|A2AB AFDF|1 EDB,C D2Bc:|2 EDB,C D2cd||
|:e2ce Aece|fedc dcBA|B2GA BcdB|AD F/E/D ADFA|
e2ce Aece|fedc dcBA|B2GA BcdB|AD F/E/D ADFA|
GFED|E2CE A,CEG|1 FDEC D2cd:|2 FDEC D2||

